assets/images/icons/calendar.svg

<svg height="19" viewBox="0 0 18 19" width="18" xmlns="http://www.w3.org/2000/svg"><g fill="#232d37"><path d="m3.25 4.09375c-.77665043 0-1.40625.62959957-1.40625 1.40625v10.375c0 .7766504.62959957 1.40625 1.40625 1.40625h11.5c.7766504 0 1.40625-.6295996 1.40625-1.40625v-10.375c0-.77665043-.6295996-1.40625-1.40625-1.40625zm0-1.6875h11.5c1.7086309 0 3.09375 1.38511906 3.09375 3.09375v10.375c0 1.7086309-1.3851191 3.09375-3.09375 3.09375h-11.5c-1.70863094 0-3.09375-1.3851191-3.09375-3.09375v-10.375c0-1.70863094 1.38511906-3.09375 3.09375-3.09375z"/><path d="m11.7118056 1c0-.46599026.3777597-.84375.84375-.84375.4659902 0 .84375.37775974.84375.84375v3.55555556c0 .46599025-.3777598.84375-.84375.84375-.4659903 0-.84375-.37775975-.84375-.84375z"/><path d="m4.60069444 1c0-.46599026.37775975-.84375.84375-.84375.46599026 0 .84375.37775974.84375.84375v3.55555556c0 .46599025-.37775974.84375-.84375.84375-.46599025 0-.84375-.37775975-.84375-.84375z"/><path d="m1 8.95486111c-.46599026 0-.84375-.37775974-.84375-.84375s.37775974-.84375.84375-.84375h16c.4659903 0 .84375.37775974.84375.84375s-.3777597.84375-.84375.84375z"/></g></svg>

<?xml version="1.0" encoding="UTF-8"?>
<svg width="18px" height="19px" viewBox="0 0 18 19" version="1.1" xmlns="http://www.w3.org/2000/svg" xmlns:xlink="http://www.w3.org/1999/xlink">
    <title></title>
    <desc></desc>
    <defs></defs>
    <g id="Design" stroke="none" stroke-width="1" fill="none" fill-rule="evenodd">
        <g id="Singular-Desktop" transform="translate(-653.000000, -1185.000000)" class="fill-layer" fill="#232D37" fill-rule="nonzero">
            <g id="Group-7" transform="translate(653.000000, 1185.000000)">
                <g id="Group-4">
                    <path d="M3.25,4.09375 C2.47334957,4.09375 1.84375,4.72334957 1.84375,5.5 L1.84375,15.875 C1.84375,16.6516504 2.47334957,17.28125 3.25,17.28125 L14.75,17.28125 C15.5266504,17.28125 16.15625,16.6516504 16.15625,15.875 L16.15625,5.5 C16.15625,4.72334957 15.5266504,4.09375 14.75,4.09375 L3.25,4.09375 Z M3.25,2.40625 L14.75,2.40625 C16.4586309,2.40625 17.84375,3.79136906 17.84375,5.5 L17.84375,15.875 C17.84375,17.5836309 16.4586309,18.96875 14.75,18.96875 L3.25,18.96875 C1.54136906,18.96875 0.15625,17.5836309 0.15625,15.875 L0.15625,5.5 C0.15625,3.79136906 1.54136906,2.40625 3.25,2.40625 Z" id="Rectangle-path"></path>
                    <path d="M11.7118056,1 C11.7118056,0.534009742 12.0895653,0.15625 12.5555556,0.15625 C13.0215458,0.15625 13.3993056,0.534009742 13.3993056,1 L13.3993056,4.55555556 C13.3993056,5.02154581 13.0215458,5.39930556 12.5555556,5.39930556 C12.0895653,5.39930556 11.7118056,5.02154581 11.7118056,4.55555556 L11.7118056,1 Z" id="Shape"></path>
                    <path d="M4.60069444,1 C4.60069444,0.534009742 4.97845419,0.15625 5.44444444,0.15625 C5.9104347,0.15625 6.28819444,0.534009742 6.28819444,1 L6.28819444,4.55555556 C6.28819444,5.02154581 5.9104347,5.39930556 5.44444444,5.39930556 C4.97845419,5.39930556 4.60069444,5.02154581 4.60069444,4.55555556 L4.60069444,1 Z" id="Shape"></path>
                    <path d="M1,8.95486111 C0.534009742,8.95486111 0.15625,8.57710137 0.15625,8.11111111 C0.15625,7.64512085 0.534009742,7.26736111 1,7.26736111 L17,7.26736111 C17.4659903,7.26736111 17.84375,7.64512085 17.84375,8.11111111 C17.84375,8.57710137 17.4659903,8.95486111 17,8.95486111 L1,8.95486111 Z" id="Shape"></path>
                </g>
            </g>
        </g>
    </g>
</svg>
